svgs/notes.svg

<svg width="192" height="192" viewBox="0 0 192 192" fill="none" xmlns="http://www.w3.org/2000/svg"><g clip-path="url(#a)" stroke="#000" stroke-width="12" stroke-linecap="round" stroke-linejoin="round"><path d="M55 139.591 61.173 171l26.432-17.816L136 35.594 103.394 22 55 139.591ZM22 42h72m40 0h36M22 78h57m41 0h50M22 114h41m41 0h66M22 150h34m34 0h32"/></g><defs><clipPath id="a"><path fill="#fff" d="M0 0h192v192H0z"/></clipPath></defs></svg>

<?xml version="1.0" encoding="UTF-8" standalone="no"?><svg xmlns:android="http://schemas.android.com/apk/res/android" height="192" width="192" xmlns="http://www.w3.org/2000/svg">
  <g>
    <clip-path android:pathData="M0,0h192v192h-192z"/>
    <path d="M55,139.59L61.17,171L87.61,153.18L136,35.59L103.39,22L55,139.59Z" fill="#000000" fill-opacity="0.0" stroke="#000000" stroke-linecap="round" stroke-linejoin="round" stroke-width="12"/>
    <path d="M22,42H94M134,42H170" fill="#000000" fill-opacity="0.0" stroke="#000000" stroke-linecap="round" stroke-linejoin="round" stroke-width="12"/>
    <path d="M22,78H79M120,78H170" fill="#000000" fill-opacity="0.0" stroke="#000000" stroke-linecap="round" stroke-linejoin="round" stroke-width="12"/>
    <path d="M22,114H63M104,114H170" fill="#000000" fill-opacity="0.0" stroke="#000000" stroke-linecap="round" stroke-linejoin="round" stroke-width="12"/>
    <path d="M22,150H56M90,150H122" fill="#000000" fill-opacity="0.0" stroke="#000000" stroke-linecap="round" stroke-linejoin="round" stroke-width="12"/>
  </g>
</svg>
